src/lib/packages/icons/src/assets/filled/folder.svg

<svg xmlns="http://www.w3.org/2000/svg" width="24" height="24" fill="none"><path fill="currentColor" d="M21 10v7c0 2-1 3-3 3H6c-2 0-3-1-3-3V7c0-2 1-3 3-3h4l3 3h5c2 0 3 1 3 3Z"/></svg>

<svg width="24" height="24" viewBox="0 0 24 24" fill="none" xmlns="http://www.w3.org/2000/svg">
<path d="M21 10V17C21 19 20 20 18 20H6C4 20 3 19 3 17V7C3 5 4 4 6 4H10L13 7H18C20 7 21 8 21 10Z" fill="currentColor"/>
</svg>
